images/promo/logo.svg

<svg width="200" height="20" viewBox="0 0 200 20" fill="none" xmlns="http://www.w3.org/2000/svg">
<path fill-rule="evenodd" clip-rule="evenodd" d="M0 9.9715C0 8.10659 0.457 6.41268 1.371 4.88976C2.285 3.36483 3.532 2.16989 5.111 1.30093C6.689 0.433978 8.458 0 10.414 0C12.355 0 14.118 0.433978 15.706 1.30093C17.294 2.16989 18.546 3.36483 19.459 4.88976C20.374 6.41268 20.83 8.10659 20.83 9.9715C20.83 11.8374 20.375 13.5353 19.459 15.0682C18.546 16.6002 17.295 17.8061 15.706 18.6831C14.118 19.56 12.354 19.999 10.414 19.999C8.476 19.999 6.713 19.56 5.125 18.6831C3.536 17.8061 2.285 16.6062 1.371 15.0832C0.457 13.5593 0 11.8554 0 9.9715ZM15.553 6.86966C15.027 5.9267 14.317 5.18374 13.421 4.63977C12.524 4.0948 11.542 3.82281 10.471 3.82281C9.4 3.82281 8.402 4.0948 7.48 4.63977C6.556 5.18374 5.826 5.9267 5.291 6.86966C4.755 7.81061 4.487 8.84556 4.487 9.9715C4.487 11.1164 4.759 12.1604 5.305 13.1013C5.849 14.0423 6.578 14.7913 7.492 15.3452C8.407 15.8992 9.4 16.1762 10.471 16.1762C11.542 16.1762 12.524 15.9042 13.421 15.3592C14.317 14.8143 15.027 14.0663 15.553 13.1153C16.08 12.1644 16.343 11.1174 16.343 9.9715C16.343 8.84556 16.08 7.81061 15.553 6.86966Z" fill="white"/>
<path d="M91.2597 5.76046L92.9492 2.13289C91.9522 1.48693 90.8062 0.969952 89.5132 0.580971C88.2222 0.19399 86.9102 0 85.5802 0C84.0842 0 82.7732 0.235988 81.6472 0.706965C80.5212 1.17794 79.6432 1.85191 79.0162 2.72886C78.3872 3.60682 78.0732 4.62677 78.0732 5.79071C78.0732 7.04565 78.3782 8.0516 78.9892 8.80956C79.5972 9.56652 80.3222 10.1295 81.1622 10.4995C82.0022 10.8675 83.0882 11.2374 84.4172 11.6064C85.3402 11.8654 86.0652 12.0964 86.5922 12.2994C87.1192 12.5024 87.5522 12.7654 87.8932 13.0893C88.2352 13.4113 88.4062 13.8223 88.4062 14.3213C88.4062 14.9493 88.1522 15.4292 87.6452 15.7612C87.1362 16.0942 86.4302 16.2602 85.5252 16.2602C84.4732 16.2602 83.3092 15.9922 82.0352 15.4582C80.7602 14.9213 79.6352 14.2103 78.6552 13.3243L76.9102 16.8982C78.0182 17.8571 79.3302 18.6151 80.8442 19.169C82.3592 19.722 83.9002 20 85.4702 20C86.9292 20 88.2312 19.768 89.3762 19.307C90.5212 18.8461 91.4212 18.1671 92.0762 17.2711C92.7322 16.3752 93.0602 15.3082 93.0602 14.0723C93.0602 12.7974 92.7542 11.7724 92.1442 10.9974C91.5362 10.2205 90.8022 9.63952 89.9442 9.25154C89.0852 8.86356 87.9912 8.47558 86.6612 8.0886C85.3312 7.70061 84.3472 7.32563 83.7112 6.96565C83.0742 6.60567 82.7552 6.0847 82.7552 5.40073C82.7552 4.86576 82.9762 4.45978 83.4202 4.18179C83.8642 3.9048 84.4632 3.76681 85.2202 3.76681C86.0152 3.76681 86.9702 3.9468 88.0882 4.30678C89.205 4.66672 90.2629 5.15161 91.2597 5.76046Z" fill="white"/>
<path d="M147.92 19.6937H152.74L150.978 16.4944C148.006 11.0972 145.035 5.70025 142.061 0.304688C140.537 3.07226 139.012 5.83928 137.488 8.6063L137.486 8.60917C135.451 12.3036 133.416 15.998 131.382 19.6937H135.898L141.91 8.77926L147.92 19.6937Z" fill="white"/>
<path fill-rule="evenodd" clip-rule="evenodd" d="M160.289 19.6937V0.304688H168.71C171.24 0.304688 173.197 0.890658 174.583 2.0636C175.967 3.23554 176.66 4.89346 176.66 7.03535C176.66 8.53128 176.35 9.81021 175.731 10.8722C175.113 11.9341 174.212 12.7411 173.031 13.295L177.159 19.6937H172.2L169.125 14.154H164.665V19.6937H160.289ZM171.522 4.75046C170.865 4.20549 169.929 3.93251 168.71 3.93251H164.666V10.4982H168.71C169.929 10.4982 170.865 10.2162 171.522 9.65322C172.176 9.09025 172.505 8.26229 172.505 7.17434C172.505 6.1034 172.176 5.29544 171.522 4.75046Z" fill="white"/>
<path d="M200 0.304985H183.795V4.0158H189.695V19.694H194.071V4.0158H200V0.304985Z" fill="white"/>
<path d="M105.846 10.1095V19.694H101.912V0.304985L112.826 12.2154L123.741 0.304985L123.657 19.694H119.723V10.2005L112.826 17.7281L105.846 10.1095Z" fill="white"/>
<path d="M70.3014 0.304688H54.0964V4.0155H59.9964V19.6937H64.3744V4.0155H70.3014V0.304688Z" fill="white"/>
<path d="M33.4148 11.6895C33.4148 13.0744 33.8068 14.1683 34.5918 14.9713C35.3768 15.7743 36.4248 16.1772 37.7358 16.1772C39.0108 16.1772 40.0258 15.7793 40.7828 14.9863C41.5408 14.1923 41.9198 13.0924 41.9198 11.6895V0.304039H46.2958V11.6895C46.2958 13.3884 45.9498 14.8603 45.2568 16.1072C44.5648 17.3542 43.5718 18.3141 42.2798 18.9881C40.9858 19.6621 39.4628 19.9991 37.7088 19.9991C35.9528 19.9991 34.4208 19.6621 33.1098 18.9881C31.7998 18.3141 30.7918 17.3542 30.0908 16.1072C29.3898 14.8603 29.0378 13.3884 29.0378 11.6895V0.304039H33.4138L33.4148 11.6895Z" fill="white"/>
</svg>

<svg width="200" height="20" fill="none" xmlns="http://www.w3.org/2000/svg"><path fill-rule="evenodd" clip-rule="evenodd" d="M0 9.972c0-1.865.457-3.56 1.371-5.082a9.766 9.766 0 0 1 3.74-3.59C6.689.435 8.458 0 10.414 0c1.941 0 3.704.434 5.292 1.3 1.588.87 2.84 2.065 3.753 3.59.915 1.523 1.371 3.217 1.371 5.082 0 1.865-.455 3.563-1.371 5.096a9.797 9.797 0 0 1-3.753 3.615C14.118 19.56 12.354 20 10.414 20c-1.938 0-3.701-.439-5.289-1.316-1.589-.877-2.84-2.077-3.754-3.6C.457 13.56 0 11.855 0 9.972ZM15.553 6.87a5.942 5.942 0 0 0-2.132-2.23 5.57 5.57 0 0 0-2.95-.817 5.778 5.778 0 0 0-2.991.817 5.947 5.947 0 0 0-2.189 2.23 6.16 6.16 0 0 0-.804 3.102c0 1.144.272 2.188.818 3.13a6.216 6.216 0 0 0 2.187 2.243 5.648 5.648 0 0 0 2.979.831 5.57 5.57 0 0 0 2.95-.817 5.93 5.93 0 0 0 2.132-2.244c.527-.95.79-1.998.79-3.143 0-1.126-.263-2.161-.79-3.102Z" fill="#fff"/><path d="m91.26 5.76 1.69-3.627C91.951 1.487 90.805.97 89.512.58A13.633 13.633 0 0 0 85.58 0c-1.496 0-2.807.236-3.933.707-1.126.47-2.004 1.145-2.63 2.022-.63.878-.944 1.898-.944 3.062 0 1.255.305 2.26.916 3.019a5.722 5.722 0 0 0 2.173 1.69c.84.367 1.926.737 3.255 1.106.923.26 1.648.49 2.175.693.527.203.96.466 1.301.79.342.322.513.733.513 1.232 0 .628-.254 1.108-.76 1.44-.51.333-1.216.5-2.12.5-1.053 0-2.217-.269-3.49-.803a11.849 11.849 0 0 1-3.38-2.134l-1.746 3.574c1.108.96 2.42 1.717 3.934 2.271 1.515.553 3.056.831 4.626.831 1.46 0 2.761-.232 3.906-.693 1.145-.46 2.045-1.14 2.7-2.036.656-.896.984-1.963.984-3.199 0-1.275-.306-2.3-.916-3.075a5.8 5.8 0 0 0-2.2-1.745c-.859-.388-1.953-.776-3.283-1.163-1.33-.388-2.314-.763-2.95-1.123-.637-.36-.956-.881-.956-1.565 0-.535.221-.941.665-1.22.444-.276 1.043-.414 1.8-.414.795 0 1.75.18 2.868.54 1.117.36 2.175.845 3.172 1.453ZM147.92 19.694h4.82l-1.762-3.2c-2.972-5.397-5.943-10.794-8.917-16.19l-4.573 8.302-.002.003c-2.035 3.695-4.07 7.389-6.104 11.085h4.516l6.012-10.915 6.01 10.915Z" fill="#fff"/><path fill-rule="evenodd" clip-rule="evenodd" d="M160.289 19.694V.304h8.421c2.53 0 4.487.587 5.873 1.76 1.384 1.172 2.077 2.83 2.077 4.971 0 1.496-.31 2.775-.929 3.837-.618 1.062-1.519 1.87-2.7 2.423l4.128 6.399H172.2l-3.075-5.54h-4.46v5.54h-4.376ZM171.522 4.75c-.657-.545-1.593-.817-2.812-.817h-4.044v6.565h4.044c1.219 0 2.155-.282 2.812-.845.654-.563.983-1.39.983-2.479 0-1.07-.329-1.879-.983-2.424Z" fill="#fff"/><path d="M200 .305h-16.205v3.71h5.9v15.679h4.376V4.016H200V.305ZM105.846 10.11v9.584h-3.934V.305l10.914 11.91L123.741.305l-.084 19.389h-3.934v-9.493l-6.897 7.527-6.98-7.619ZM70.301.305H54.096v3.71h5.9v15.679h4.378V4.016h5.927V.304ZM33.415 11.69c0 1.384.392 2.478 1.177 3.281.785.803 1.833 1.206 3.144 1.206 1.275 0 2.29-.398 3.047-1.19.758-.795 1.137-1.895 1.137-3.297V.304h4.376V11.69c0 1.698-.346 3.17-1.04 4.417-.691 1.247-1.684 2.207-2.976 2.881-1.294.674-2.817 1.011-4.571 1.011-1.756 0-3.288-.337-4.6-1.01-1.31-.675-2.317-1.635-3.018-2.882-.701-1.247-1.053-2.719-1.053-4.417V.304h4.376V11.69Z" fill="#fff"/></svg>
